X:537
T: SUSE LEWE SUSE
N: E1815
O: Europa, Mitteleuropa, Deutschland, Westfalen, Bielefeld
R: Kinder -, Wiegen -, Schlaf - Lied
M: 3/4
L: 1/8
K: F
 | c3dcB | A2A2
B2 | G2F2G2 | F4
A2 | c3dcB | A2A2
A2 | G2F2G2 | F4z2
G2G2G2 | A2A2
A2 | B2B2A2 | G4
FA | c3dcB | A2A2
A2 | G2F2G2 | F4z2

